X:1
T:Title
%%score ( 1 2 ) ( 3 4 )
L:1/8
Q:1/4=68
M:6/8
K:Ab
V:1 treble nm="Strings 1, Treble"
V:2 treble 
V:3 bass nm="Strings 1, Bass"
V:4 bass 
V:1
 z3 z2 [CE] | [CE][_C=D][=CE] [_DF][FA][=EB] | [Ec]3 [Ec]2 [Ec] | [Ec][Fd][DF] [DG][Ec][DB] | %4
w: 1.~I~|know~ not~ what~ li eth~ be|fore~ me,~ What~|shad ows~ may~ fall~ on~ my~|
 [CA]3- [CA]2 [CE]/[CE]/ | [DF][EG][FA] [GB][FA][DF] | [CE]2 [CA] [Ec]2 [_Gc] | %7
w: way,~ * But~ I'm~|sure~ that~ my~ Lord~ watch es~|o ver~ me,~ And~|
 [Gc][GB][Ge] [EG][=DA][DF] | E2 C D2 E | d3 z2 .F | C2 D [Ec]2 [Ec] | [=Ec][EG][Ec] [Fc][FA][Fc] | %12
w: bright ens~ each~ hour~ of~ the~|day.~ * * *||||
 [Ee][EB][Ee] e-[=Ge][Q:1/4=68]E[Q:1/4=12] | [Fd]3 [Fd]2 D/-[DG]/ | [CE]3 [Ec]2 [Ec] | %15
w: |||
 [FB][Bf][_cf] [=cf][ce][Q:1/4=68]E[Q:1/4=12] | [=DF] [_DB]2 .[CA]3 |] %17
w: ||
V:2
 x6 | x6 | x6 | x6 | x6 | x6 | x6 | x6 | x6 | EF_G [=Gd]2 D/-[DG]/ | E3 z3 | x6 | z3 ._G3 | %13
 z3 z2 .F | x6 | z A2- A2 z | x6 |] %17
V:3
 z6 | [A,,A,]6 | A,,C,E, A, .A,,2 | E,6 | E,2 E,- E,2 z | [D,A,]6 | [A,,A,]3- [A,,A,]2 [=A,,=A,] | %7
 B,3- B,F,B, | G,2 A, .B,3 | G,A,=A, B, .B,2 | A,A,B, A,A,A, | [G,B,]3 [F,A,C]3 | %12
 [G,B,D]2 [A,C] [=A,C] .[B,D]2 | [E,G,][E,G,][E,G,] [E,G,] .[E,G,]2 | %14
 [A,,A,][A,,A,][A,,A,] [A,,A,] .[A,,A,]2 | D,2 =D, E,2 [C,A,] | [B,,A,] [E,,E,G,]2 .[A,,E,]3 |] %17
V:4
 x6 | x6 | x6 | z3 E,,3 | A,, .C,2 .A,,3 | x6 | x6 | B,,6 | E,6 | E,6 | A,,6 | x6 | x6 | x6 | x6 | %15
 x6 | x6 |] %17

